X: 183
T:The Launching Of The Boat
R:reel
S:Tommy Peoples &amp; Dermot Byrnes
H:
N:
D:Concert, Galway
Z:Adrian Scahill
M:4/4
L:1/8
K:D
d2 fd AGFA|BEE2 BAFA|d2fd AGFG|E3F GABc|\
d2fd AGFA|BEE2 BAFG|A2FA DAFD|1 EDEF D4:|2 EDEF D3g||\
fdd2 fdge|fdAd fgaf|efgf g3f|efga bgeg|\
fdd2 edcA|dcdB AGFG|A2FA DAFD|EDEF D4:||

